X:147
T: Yangtao shenglai nian dui nian
N: C0247
O: China,Guangdong, Leizhou, Halbinsel gegengber von Hainan)
S: II, 398, 2)]
N: Mehrere Fermaten, vereinzelt Verzierungen und Glissandi.
R: Shange, Leizhouge, Wenda duichang. Cai shuiguoming]
M: 2/4
L: 1/32
K: A
a16 | f4f4c2e2c2e2 | f2e2c4z4
f2a2 | e2f2f2e2f2e2c2f2 | e2e2e2f2c4B4 | c4e2c2B4A4 | B16 |
e2f2e2c2B4z4
f4f2a2c2e2c4 | e4A4f4e4 |
c2e2B3cB2A2 | B16 | c4e2c2A4B4 | c2B2A4B8 |
a16 | f2e2e4f4e4 | f2e2d4z4
d2e2 | f2e2f3af2e2- | e16 |
f4e4f4c4e4 | B2c2A4c4B4 | c4e4c2e2A4 | B16 |
e2f2e2c2B4z4
e2f2e4f4e4 | f2e2d4f4e4 |
B2c2A4c4e2A2 | B16 | c4e4c8 | A8B8

@@@ Tune index: 6148
